X:1
T:Sheet music supplied by www.theperfectscores.com. Waltz. (from "faust")
%%score { 1 | 2 }
L:1/4
Q:1/4=177
M:3/4
I:linebreak $
K:Bmin
V:1 treble nm="Piano Collection for Beginners - Grade 2"
V:2 bass 
V:1
 !4!d z !3!d- | d !5!f3/2 !1!A/ | !3!d z !1!d- | d !5!a3/2 !3!f/ | !1!d z !1!d- |$ d !5!d'3/2 c'/ | %6
 (!3!b2 !2!a-) | a/(!1!e/!2!^d/!3!e/!5!g/!2!c/) | !1!=d z !3!d- | d !5!f3/2 !1!A/ |$ !3!d z !1!d- | %11
 d !5!a3/2 !3!f/ | !2!e z !1!e- | (e !5!d'3/2) !2!^g/ | (!4!b !3!a3/2) (!5!a/ | A3) ::$ %16
 .!5!f z/ !3!c/ !4!d- | d/ .!2!A/ !1!B/ .c/ .d/ .e/ | !5!f z/ !3!c/ !4!d- | %19
 d/.!2!d/!1!e/.f/.g/.!4!a/ | !5!b z/ !3!^g/ !4!a |$ a/!2!^d/!1!e/f/=g/.!4!a/ | %22
 !5!b z/ !3!^g/ !4!c'- | c'/.!3!b/.a/!1!e/f/g/ | !2!f z/ !3!c/ d- |!<(! d/!2!A/!1!B/c/d/.e/ | %26
 !5!f z/ !3!c/ d!<)! |$ d/!2!d/!1!e/f/.g/.a/ | !5!b z/ !1!g/ !3!c'- | %29
 c'/.!2!b/!1!a/.!5!e'/.!2!b/!3!c'/ | !5!d'/.!3!a/!2!f/!1!d/.!3!A/!2!F/ |1 %31
 !1!D/ !2!A/.!1!B/.c/d/e/ :|2!fine! !1!D/ z/ ||$ (!2!A ^A) || ((!1!B3- | B !2!c) d) | !4!e3- | %37
 e d c | !5!!3!f3- |$ f (!2!e !1!d) | !4!a3- | a (!5!b !2!f) | !3!=g3- | (g !1!e !4!a) | !3!a3 |$ %45
 a (!1!e !2!^e) | f3- | f (d d') | !3!a3- | a (!2!A !3!^A |$ B3-) | B (!2!c !3!d | f) z !1!e- | %53
 e (!2!f g | !5!b) z !1!a- |$ a (!2!b c' | !5!e') z !4!d'- | d' !1!a !2!f | (g3 | %59
 b) (!1!b !3!c') |$ !4!a3- | a (!2!e !1!^e | f) (!4!b a) | ^g (!4!c' b) | a (!1!e !4!=g | %65
!D.C.! B !5!e !3!c) |] %66
V:2
 !4!D, !2!!1![F,A,] [F,A,] | A,, [F,A,] [F,A,] | D, [F,A,] [F,A,] | A,, [F,A,] [F,A,] | %4
 D, [F,A,] [F,A,] |$ A,, [F,A,] [F,A,] | !5!C, [G,A,] [G,A,] | !5!A,, [G,A,] [G,A,] | %8
 !4!D, [F,A,] [F,A,] | A,, [F,A,] [F,A,] |$ D, [F,A,] [F,A,] | A,, [F,A,] [F,A,] | %12
 B,, !3![^G,D] [G,D] | !5!E, !3![^G,D] [G,D] | !4!A, !2![CE] [CE] | !4!A,3 ::$ %16
 !4!D, !2!!1![F,A,] [F,A,] | A,, [F,A,] [F,A,] | D, [F,A,] [F,A,] | A,, [F,A,] [F,A,] | %20
 !3!C, [=G,A,] [G,A,] |$ A,, [G,A,] [G,A,] | !5!C, [G,A,] [G,A,] | A,, [G,A,] [G,A,] | %24
 !4!D, [F,A,] [F,A,] | A,, [F,A,] [F,A,] | D, [F,A,] [F,A,] |$!<(! A,, [F,A,] [F,A,] | %28
 !4!C, !3![G,A,] [G,A,]!<)! |!<(! A,, !3![G,A,] [G,A,]!<)! | [D,F,]/ z/ A,/ z/ F,/ z/ |1 %31
!<(! D,/!<)! z/ z z :|2 D,/ z/ ||$ z z || !4!C, !2![G,A,] [G,A,] | !5!A,, !2![G,A,] [G,A,] | %36
 C, [G,A,] [G,A,] | A,, [G,A,] [G,A,] | !4!D, !2![F,A,] [F,A,] |$ A,, [F,A,] [F,A,] | %40
 D, [F,A,] [F,A,] | A,, [F,A,] [F,A,] | !4!E, !2![G,A,] [G,A,] | A,, [G,A,] [G,A,] | %44
 C, [G,A,] [G,A,] |$ A,, [G,A,] [G,A,] | !4!D, [F,A,] [F,A,] | A,, [F,A,] [F,A,] | %48
 D, [F,A,] [F,A,] | A,, [F,A,] [F,A,] |$ !4!C, [G,A,] [G,A,] |"_cresc." A,, [G,A,] [G,A,] | %52
 C, [G,A,] [G,A,] | A,, [G,A,] [G,A,] | D, [F,A,] [F,A,] |$ A,, [F,A,] [F,A,] | D, [F,A,] [F,A,] | %57
 A,, [F,A,] [F,A,] | !3!E, [G,A,] [G,A,] | A,, [G,A,] [G,A,] |$ !4!C, [G,A,] [G,A,] | %61
 A,, [G,A,] [G,A,] | !4!D, !2![F,A,] [F,A,] | !5!E, !3![^G,D] [G,D] | !2![A,C]"^rit." z z | %65
 [A,,G,]3 |] %66

